assets/svg/1F3EE.svg

<svg xmlns="http://www.w3.org/2000/svg" viewBox="0 0 64 64" enable-background="new 0 0 64 64"><path fill="#1f2e35" d="m42.559 46.943c0 9.461-2.679 17.13-5.982 17.13h-5.59c-3.304 0-5.985-7.672-5.985-17.13v-29.888c0-9.461 2.682-17.13 5.985-17.13h5.589c3.306 0 5.983 7.67 5.983 17.13v29.888l0 0"/><path fill="#ec1c24" d="m53.52 44.32c0 7.433-6.02 13.457-13.455 13.457h-12.58c-7.429 0-13.454-6.02-13.454-13.457v-23.47c0-7.43 6.02-13.455 13.455-13.455h12.581c7.434 0 13.455 6.03 13.455 13.455l-.002 23.47 0 0"/><g fill="#c52030"><path d="m17.972 44.32v-23.47c0-7.43 6.02-13.455 13.454-13.455h-3.936c-7.43 0-13.455 6.03-13.455 13.455v23.472c0 7.432 6.03 13.457 13.455 13.457h3.936c-7.431-.002-13.454-6.03-13.454-13.459"/><path d="m50.584 17.08c0 .69-.56 1.25-1.25 1.25h-32c-.69 0-1.25-.56-1.25-1.25l0 0c0-.69.56-1.25 1.25-1.25h32c.69 0 1.25.56 1.25 1.25l0 0"/><path d="m43.15 10.384c0 .433-.351.783-.783.783h-20.05c-.433 0-.783-.351-.783-.783l0 0c0-.433.351-.783.783-.783h20.05c.433 0 .783.35.783.783l0 0"/><path d="m50.584 23.667c0 .69-.559 1.25-1.25 1.25h-32c-.69 0-1.25-.56-1.25-1.25l0 0c0-.69.56-1.25 1.25-1.25h32c.691 0 1.25.56 1.25 1.25l0 0"/><path d="m50.584 30.17c0 .69-.559 1.25-1.25 1.25h-32c-.69 0-1.25-.56-1.25-1.25l0 0c0-.69.56-1.25 1.25-1.25h32c.691 0 1.25.56 1.25 1.25l0 0"/><path d="m50.584 36.916c0 .691-.559 1.25-1.25 1.25h-32c-.69 0-1.25-.559-1.25-1.25l0 0c0-.689.56-1.25 1.25-1.25h32c.691 0 1.25.561 1.25 1.25l0 0"/><path d="m50.584 43.749c0 .691-.559 1.25-1.25 1.25h-32c-.69 0-1.25-.559-1.25-1.25l0 0c0-.689.56-1.25 1.25-1.25h32c.691 0 1.25.561 1.25 1.25l0 0"/><path d="m50.584 49.999c0 .691-.559 1.25-1.25 1.25h-32c-.69 0-1.25-.559-1.25-1.25l0 0c0-.689.56-1.25 1.25-1.25h32c.691 0 1.25.561 1.25 1.25l0 0"/><path d="m40.07 7.399h-9.781c7.43 0 13.455 6.02 13.455 13.455v23.472c0 7.432-6.02 13.457-13.455 13.457h9.781c7.434 0 13.455-6.02 13.455-13.457v-23.472c-.002-7.43-6.02-13.455-13.455-13.455"/></g></svg>

<?xml version="1.0" encoding="UTF-8" standalone="no"?>
<!-- Generator: Adobe Illustrator 16.0.0, SVG Export Plug-In . SVG Version: 6.00 Build 0)  -->

<svg
   xmlns:dc="http://purl.org/dc/elements/1.1/"
   xmlns:cc="http://creativecommons.org/ns#"
   xmlns:rdf="http://www.w3.org/1999/02/22-rdf-syntax-ns#"
   xmlns:svg="http://www.w3.org/2000/svg"
   xmlns="http://www.w3.org/2000/svg"
   xmlns:sodipodi="http://sodipodi.sourceforge.net/DTD/sodipodi-0.dtd"
   xmlns:inkscape="http://www.inkscape.org/namespaces/inkscape"
   version="1.1"
   id="Layer_1"
   x="0px"
   y="0px"
   width="64px"
   height="64px"
   viewBox="0 0 64 64"
   enable-background="new 0 0 64 64"
   xml:space="preserve"
   inkscape:version="0.48.5 r10040"
   sodipodi:docname="1F3EE.svg"
   inkscape:export-filename="D:\TESTINGEMOJI\SVGTEST\1F3EE.png"
   inkscape:export-xdpi="90"
   inkscape:export-ydpi="90"><metadata
   id="metadata3012"><rdf:RDF><cc:Work
       rdf:about=""><dc:format>image/svg+xml</dc:format><dc:type
         rdf:resource="http://purl.org/dc/dcmitype/StillImage" /><dc:title></dc:title></cc:Work></rdf:RDF></metadata><defs
   id="defs3010" /><sodipodi:namedview
   pagecolor="#ffffff"
   bordercolor="#666666"
   borderopacity="1"
   objecttolerance="10"
   gridtolerance="10"
   guidetolerance="10"
   inkscape:pageopacity="0"
   inkscape:pageshadow="2"
   inkscape:window-width="711"
   inkscape:window-height="807"
   id="namedview3008"
   showgrid="false"
   inkscape:zoom="6.390625"
   inkscape:cx="32"
   inkscape:cy="32"
   inkscape:window-x="522"
   inkscape:window-y="116"
   inkscape:window-maximized="0"
   inkscape:current-layer="Layer_1" />
<path
   fill="#1F2E35"
   d="M42.559,46.943c0,9.461-2.679,17.133-5.982,17.133h-5.59c-3.304,0-5.985-7.672-5.985-17.133V17.055  c0-9.461,2.682-17.131,5.985-17.131h5.589c3.306,0,5.983,7.67,5.983,17.131V46.943L42.559,46.943z"
   id="path2986" />
<path
   fill="#EC1C24"
   d="M53.523,44.324c0,7.433-6.021,13.457-13.455,13.457h-12.58c-7.429,0-13.454-6.024-13.454-13.457v-23.47  c0-7.43,6.025-13.455,13.455-13.455H40.07c7.434,0,13.455,6.025,13.455,13.455L53.523,44.324L53.523,44.324z"
   id="path2988" />
<path
   fill="#C52030"
   d="M17.972,44.324v-23.47c0-7.43,6.023-13.455,13.454-13.455H27.49c-7.43,0-13.455,6.025-13.455,13.455v23.472  c0,7.432,6.025,13.457,13.455,13.457h3.936C23.995,57.781,17.972,51.757,17.972,44.324z"
   id="path2990" />
<path
   fill="#C52030"
   d="M50.584,17.083c0,0.69-0.56,1.25-1.25,1.25h-32c-0.69,0-1.25-0.56-1.25-1.25l0,0c0-0.69,0.56-1.25,1.25-1.25  h32C50.024,15.833,50.584,16.393,50.584,17.083L50.584,17.083z"
   id="path2992" />
<path
   fill="#C52030"
   d="M43.148,10.384c0,0.433-0.351,0.783-0.783,0.783H22.313c-0.433,0-0.783-0.351-0.783-0.783l0,0  c0-0.433,0.351-0.783,0.783-0.783h20.052C42.798,9.601,43.148,9.951,43.148,10.384L43.148,10.384z"
   id="path2994" />
<path
   fill="#C52030"
   d="M50.584,23.667c0,0.69-0.559,1.25-1.25,1.25h-32c-0.69,0-1.25-0.56-1.25-1.25l0,0  c0-0.69,0.56-1.25,1.25-1.25h32C50.025,22.417,50.584,22.977,50.584,23.667L50.584,23.667z"
   id="path2996" />
<path
   fill="#C52030"
   d="M50.584,30.167c0,0.69-0.559,1.25-1.25,1.25h-32c-0.69,0-1.25-0.56-1.25-1.25l0,0  c0-0.69,0.56-1.25,1.25-1.25h32C50.025,28.917,50.584,29.477,50.584,30.167L50.584,30.167z"
   id="path2998" />
<path
   fill="#C52030"
   d="M50.584,36.916c0,0.691-0.559,1.25-1.25,1.25h-32c-0.69,0-1.25-0.559-1.25-1.25l0,0  c0-0.689,0.56-1.25,1.25-1.25h32C50.025,35.666,50.584,36.227,50.584,36.916L50.584,36.916z"
   id="path3000" />
<path
   fill="#C52030"
   d="M50.584,43.749c0,0.691-0.559,1.25-1.25,1.25h-32c-0.69,0-1.25-0.559-1.25-1.25l0,0  c0-0.689,0.56-1.25,1.25-1.25h32C50.025,42.499,50.584,43.06,50.584,43.749L50.584,43.749z"
   id="path3002" />
<path
   fill="#C52030"
   d="M50.584,49.999c0,0.691-0.559,1.25-1.25,1.25h-32c-0.69,0-1.25-0.559-1.25-1.25l0,0  c0-0.689,0.56-1.25,1.25-1.25h32C50.025,48.749,50.584,49.31,50.584,49.999L50.584,49.999z"
   id="path3004" />
<path
   fill="#C52030"
   d="M40.07,7.399h-9.781c7.43,0,13.455,6.025,13.455,13.455v23.472c0,7.432-6.025,13.457-13.455,13.457h9.781  c7.434,0,13.455-6.025,13.455-13.457V20.854C53.523,13.424,47.504,7.399,40.07,7.399z"
   id="path3006" />
</svg>
